X:1
T:Title
%%score { ( 1 4 ) | ( 2 3 ) }
L:1/8
M:4/4
K:G
V:1 treble nm="Grand Piano"
V:4 treble 
V:2 bass 
V:3 bass 
V:1
 z4 z2[Q:1/4=108] D2 | DEFG A2 G2 | B2 B4 Bc | [GB]2 [FA]2 D2 A2 |[M:3/4] G6 |[M:1/4] [DG][DF] | %6
[M:4/4] [CE]2 [EG]2 [Ec]2 [CE]2 | [B,D]2 [DB]4 [DB][DB] | [DA]2 [Dd]2 [DF]2 [^CE]2 |[M:3/4] D6 | %10
[M:1/4] D2 |[M:4/4] D3 D F2 A2 |[M:3/4] [FAc]6 |[M:1/4] D2 |[M:4/4] [G,DG]2 [B,DG]2 B2 AG | A6 Bc | %16
 d2 z2 c2 z2 | [DFA]6 d2 | B2 [DG]2 A2 D2 | G2 B2 [Fd]2 [DGd]2 | z2 .[Dd]2 z4 |[M:3/4] [B,G]6 |] %22
V:2
 z4 z2 [G,B,]2 | [G,B,][G,B,D][G,B,D][G,B,D][K:treble] [G,C^D]2 [G,CD]2 | %2
 [G,B,D]2 [G,DG]4 [G,DG][G,EG] | [D,D]2 [D,C]2 [D,C]2 [D,CD]2 |[M:3/4] [G,B,D]6 | %5
[M:1/4] [B,,G,][B,,G,] |[M:4/4] [C,G,]2 [C,C]2 [C,G,]2 [C,G,]2 | [G,,G,]2 [G,,G,]4 [G,,G,][G,,G,] | %8
 [A,,F,]2 [A,,F,]2 [A,,A,]2 [A,,G,]2 |[M:3/4] [D,F,]6 |[M:1/4] D,2 |[M:4/4] D,3 D, F,2 A,2 | %12
[M:3/4] [D,A,CD]6 |[M:1/4] D,2 |[M:4/4] z4 z2 .[F,D]2 | z4 z2[K:treble] D2 | %16
 .[B,DG]2 [A,CF][G,DG][K:bass] [A,CE]A,G,G, | D,6 [F,A,D]2 | [G,D]2 [B,,G,]2 [D,F,D]2 [F,A,]2 | %19
 [G,B,D]2 [E,G,E]2 [D,A,]2 B,,2 | [C,C]2 B,,B,, D,2 D,2 |[M:3/4] G,,6 |] %22
V:3
 x8 | x4[K:treble] x4 | x8 | x8 |[M:3/4] x6 |[M:1/4] x2 |[M:4/4] x8 | x8 | x8 |[M:3/4] x6 | %10
[M:1/4] x2 |[M:4/4] x8 |[M:3/4] x6 |[M:1/4] x2 |[M:4/4] B,,2 G,,2 [G,D]2 A,-[E,A,^C] | %15
 [D,F,D]6[K:treble] G,A, | x4[K:bass] x4 | x8 | x8 | x8 | x8 |[M:3/4] x6 |] %22
V:4
 x8 | x8 | x8 | x8 |[M:3/4] x6 |[M:1/4] x2 |[M:4/4] x8 | x8 | x8 |[M:3/4] x6 |[M:1/4] x2 | %11
[M:4/4] x8 |[M:3/4] x6 |[M:1/4] x2 |[M:4/4] x8 | x8 | z B,cB z F .[B,GB]2 | x8 | x8 | x8 | %20
 [Ge]2 G-[EGc] [DGB]2 [CFA]2 |[M:3/4] x6 |] %22

